polaris-icons/icons/new-icons/OutgoingMajor.svg

<svg width="20" height="20" viewBox="0 0 20 20" fill="none" xmlns="http://www.w3.org/2000/svg">
<path d="M13.2197 4.03033C12.9268 3.73744 12.9268 3.26256 13.2197 2.96967C13.5126 2.67678 13.9874 2.67678 14.2803 2.96967L16.7803 5.46967C17.0732 5.76256 17.0732 6.23744 16.7803 6.53033L14.2803 9.03033C13.9874 9.32322 13.5126 9.32322 13.2197 9.03033C12.9268 8.73744 12.9268 8.26256 13.2197 7.96967L14.4393 6.75H13C11.7574 6.75 10.75 7.75736 10.75 9V12.75C10.75 13.1642 10.4142 13.5 10 13.5C9.58579 13.5 9.25 13.1642 9.25 12.75L9.25 9C9.25 6.92893 10.9289 5.25 13 5.25H14.4393L13.2197 4.03033Z" fill="#4A4A4A"/>
<path d="M15.75 13.25C16.1642 13.25 16.5 13.5858 16.5 14V14.51C16.5 15.7526 15.4926 16.76 14.25 16.76L5.75 16.76C4.50736 16.76 3.5 15.7526 3.5 14.51V14C3.5 13.5858 3.83579 13.25 4.25 13.25C4.66421 13.25 5 13.5858 5 14V14.51C5 14.9242 5.33579 15.26 5.75 15.26L14.25 15.26C14.6642 15.26 15 14.9242 15 14.51V14C15 13.5858 15.3358 13.25 15.75 13.25Z" fill="#4A4A4A"/>
</svg>

<svg viewBox="0 0 20 20" xmlns="http://www.w3.org/2000/svg"><path d="M13.22 4.03a.75.75 0 0 1 1.06-1.06l2.5 2.5a.75.75 0 0 1 0 1.06l-2.5 2.5a.75.75 0 1 1-1.06-1.06l1.22-1.22h-1.44a2.25 2.25 0 0 0-2.25 2.25v3.75a.75.75 0 0 1-1.5 0v-3.75a3.75 3.75 0 0 1 3.75-3.75h1.44l-1.22-1.22Z" fill="#5C5F62"/><path d="M15.75 13.25a.75.75 0 0 1 .75.75v.51a2.25 2.25 0 0 1-2.25 2.25h-8.5a2.25 2.25 0 0 1-2.25-2.25v-.51a.75.75 0 0 1 1.5 0v.51c0 .414.336.75.75.75h8.5a.75.75 0 0 0 .75-.75v-.51a.75.75 0 0 1 .75-.75Z" fill="#5C5F62"/></svg>
